X: 42441
T: Westering Home, The
R: jig
M: 6/8
K: Dmajor
|:A3 DFG|Ade f2d|ege fad|ege fdB|
ABA DFG|Ade {e}f2a|afd efe|1 d2e fdB:|2 ~d3 def||
|:gfg bag|~f3 afd|eaf g2e|fed ~B3|
ABA AFG|Ade f2a|afd efe|1 ~d3 def:|2 d2e fdB||

